X:111
T:Fiddler's Green
R:song
C:John Conolly
D:The Dubliners
Z:id:hn-song-111
M:3/4
L:1/8
Q:1/4=120
K:G
DD | G3 A B2 | c2 B2 A2 | G2 A2 B2 | E4
D2 | G3 A B2 | c2 B2 c2 | d2 G2 B2 | A4
B2 | c3 d e2 | e2 d2 c2 | B2 c2 d2 | d4
c2 | B3 A B2 | c2 A2 G2 | G2 F2 G2 | A4 ||
dc | B2 c2 d2 | c2 B2 A2 | A2 G4- | G4
d2 | e4 ee | d2 B2 G2 | A6- | A4
B2 | c3 d e2 | e2 d2 c2 | B3 c d2 | d2 c2
B2 | A4 Bc | d2 c2 B2 | A3 B A2 | G4 ||
W:As I walked by the dockside one evening so fair,
W:To view the salt waters and take the salt air,
W:I heard an old fisherman singing this song,
W:Oh, take me away boys, me time is not long.
W:
W:Chorus:
W:Wrap me up in me oilskins and jumper,
W:No more on the docks I'll be seen,
W:Just tell me old shipmates I'm taking a trip, mates,
W:And I'll see you someday on Fiddler's Green.
W:
W:Now Fiddler's Green is a place I've heard tell,
W:Where the fishermen go if they don't go to Hell,
W:Where the skies are all clear and the dolphins do play,
W:And the cold coast of Greenland is far, far away.
W:
W:Chorus
W:
W:Where the sky's are all clear and there's never a gale,
W:And the fish jump on board with a swish of their tail,
W:You can lie at your leisure, there's no work to do,
W:And the skipper's below making tea for the crew.
W:
W:Chorus
W:
W:Now when you're in dock and the long trip is through,
W:There's pubs and there's clubs, and there's lassies there too,
W:Where the girls are all pretty and the beer it is free,
W:And there's bottles of rum growing on every tree.
W:
W:Chorus
W:
W:Now I don't want a harp or a halo, not me,
W:Just give me a breeze and a good rolling sea,
W:I'll play me old squeeze box as we sail along,
W:With the wind in the rigging to sing me this song.
W:
W:Chorus

